X: 22125
T: Krista Labajalg
R: waltz
M: 3/4
K: Gmajor
|:G2 GD ED|G2 GD ED|EF FD EF|G2 GD ED|
G2 GD ED|B,2 B,D ED|EF FD EF|G2 G3B:|
|:cB AG DG|AB BG BG|A_B B=F BF|A=B BG BG|
cB AG DG|AB BG BG|A_B B=F A^F|G2 G3=B:|

